apps/scalable/mate-preferences-desktop-display.svg

<svg xmlns="http://www.w3.org/2000/svg" style="isolation:isolate" width="256" height="256"><defs><filter id="a" width="270.648" height="254.338" x="-7.32" y="2.95" filterUnits="userSpaceOnUse"><feGaussianBlur xmlns="http://www.w3.org/2000/svg" in="SourceGraphic" stdDeviation="4.294"/><feOffset xmlns="http://www.w3.org/2000/svg" dy="4" result="pf_100_offsetBlur"/><feFlood xmlns="http://www.w3.org/2000/svg" flood-opacity=".4"/><feComposite xmlns="http://www.w3.org/2000/svg" in2="pf_100_offsetBlur" operator="in" result="pf_100_dropShadow"/><feBlend xmlns="http://www.w3.org/2000/svg" in="SourceGraphic" in2="pf_100_dropShadow"/></filter></defs><path fill="#8E2D63" d="M165.685 11.947c74.055 0 84.639 10.557 84.639 84.544v59.251c0 73.986-10.584 84.543-84.639 84.543h-75.37c-74.055 0-84.639-10.557-84.639-84.543V96.491c0-73.987 10.584-84.544 84.639-84.544h75.37z" filter="url(#a)"/><path fill="#FFF" d="M5.676 126.116v29.626c0 73.986 10.584 84.543 84.639 84.543h75.37c74.055 0 84.639-10.557 84.639-84.543v-29.626H5.676z" opacity=".1"/><path fill="#FFF" d="M128 11.947v228.338h37.685c74.055 0 84.639-10.557 84.639-84.543V96.491c0-73.987-10.584-84.544-84.639-84.544H128z" opacity=".2"/><g opacity=".4"><linearGradient id="b" x1=".517" x2=".517" y2="1"><stop offset="0%" stop-color="#fff"/><stop offset="12.5%" stop-opacity=".098" stop-color="#fff"/><stop offset="92.5%" stop-opacity=".098"/><stop offset="100%" stop-opacity=".498"/></linearGradient><path fill="none" stroke="url(#b)" stroke-linecap="round" stroke-linejoin="round" stroke-width="4.077" d="M165.685 11.947c74.055 0 84.639 10.557 84.639 84.544v59.251c0 73.986-10.584 84.543-84.639 84.543h-75.37c-74.055 0-84.639-10.557-84.639-84.543V96.491c0-73.987 10.584-84.544 84.639-84.544h75.37z" vector-effect="non-scaling-stroke"/></g><path fill="#494949" d="M247.563 51.003c-.487-2.422-1.011-4.764-1.648-6.903-.736-2.469-1.578-4.755-2.539-6.871a39.591 39.591 0 0 0-3.252-5.847 33.324 33.324 0 0 0-4.043-4.905 33.33 33.33 0 0 0-4.91-4.037 39.63 39.63 0 0 0-5.856-3.248c-2.118-.959-4.407-1.8-6.879-2.535-2.472-.735-5.127-1.366-7.978-1.902-2.852-.537-5.899-.98-9.156-1.344a198.528 198.528 0 0 0-10.413-.863c-7.376-.434-15.641-.598-24.898-.598H90.62c-9.257 0-17.522.164-24.898.598-3.689.216-7.156.499-10.413.863-3.257.364-6.304.807-9.156 1.344-2.851.536-5.506 1.167-7.978 1.902-2.472.735-4.761 1.576-6.879 2.535a39.63 39.63 0 0 0-5.856 3.248 33.33 33.33 0 0 0-4.91 4.037 33.324 33.324 0 0 0-4.043 4.905 39.591 39.591 0 0 0-3.252 5.847c-.961 2.116-1.803 4.402-2.539 6.871-.637 2.139-1.161 4.481-1.648 6.903h238.515z"/><path fill="#FFF" d="M30.31 31h5v5h-5zM30.31 41h5v5h-5zM40.31 31h5v5h-5zM40.31 41h5v5h-5zM205.305 31.003h15l-7.5 11.25-7.5-11.25z"/><g opacity=".7"><linearGradient id="c" x1="1.012" x2="-.009" y1="-.009" y2="1.012" gradientTransform="matrix(-156.639 0 0 156.649 188.328 59.675)" gradientUnits="userSpaceOnUse"><stop offset="0%" stop-color="#f0f0f1"/><stop offset="100%" stop-color="#cdd9cb"/></linearGradient><path fill="url(#c)" fill-rule="evenodd" stroke="#4D4D4D" stroke-width="2" d="M31.689 59.675l156.639 156.65-156.639-.002V59.675zm31.216 72.191v53.243h53.252l-53.252-53.243z" vector-effect="non-scaling-stroke"/><path fill="none" stroke="#4D4D4D" stroke-linecap="round" stroke-width="2" d="M55.101 216.322v-7.807m23.412 7.807v-7.807m23.411 7.807v-7.714m23.412 7.714v-7.807m23.412 7.807v-7.807M31.672 99.266h7.807m-7.807 23.412h7.807m-7.807 23.411h7.714m-7.714 23.412h7.807m-7.807 23.412h7.807" vector-effect="non-scaling-stroke"/></g></svg>

<svg xmlns="http://www.w3.org/2000/svg" style="isolation:isolate" width="256" height="256" viewBox="0 0 256 256">
 <defs>
  <filter id="EySiQkFRwAIZAbTOc4b6l7a2Fn1O91ub" width="270.648" height="254.338" x="-7.32" y="2.95" filterUnits="userSpaceOnUse">
   <feGaussianBlur xmlns="http://www.w3.org/2000/svg" in="SourceGraphic" stdDeviation="4.294"/>
   <feOffset xmlns="http://www.w3.org/2000/svg" dx="0" dy="4" result="pf_100_offsetBlur"/>
   <feFlood xmlns="http://www.w3.org/2000/svg" flood-opacity=".4"/>
   <feComposite xmlns="http://www.w3.org/2000/svg" in2="pf_100_offsetBlur" operator="in" result="pf_100_dropShadow"/>
   <feBlend xmlns="http://www.w3.org/2000/svg" in="SourceGraphic" in2="pf_100_dropShadow" mode="normal"/>
  </filter>
 </defs>
 <g filter="url(#EySiQkFRwAIZAbTOc4b6l7a2Fn1O91ub)">
  <path fill="#8E2D63" d="M 165.685 11.947 C 239.74 11.947 250.324 22.504 250.324 96.491 L 250.324 155.742 C 250.324 229.728 239.74 240.285 165.685 240.285 L 90.315 240.285 C 16.26 240.285 5.676 229.728 5.676 155.742 L 5.676 96.491 C 5.676 22.504 16.26 11.947 90.315 11.947 L 165.685 11.947 Z"/>
 </g>
 <g opacity=".1">
  <path fill="#FFFFFF" d="M 5.676 126.116 L 5.676 155.742 C 5.676 229.728 16.26 240.285 90.315 240.285 L 165.685 240.285 C 239.74 240.285 250.324 229.728 250.324 155.742 L 250.324 126.116 L 5.676 126.116 Z"/>
 </g>
 <g opacity=".2">
  <path fill="#FFFFFF" d="M 128 11.947 L 128 240.285 L 165.685 240.285 C 239.74 240.285 250.324 229.728 250.324 155.742 L 250.324 96.491 C 250.324 22.504 239.74 11.947 165.685 11.947 L 128 11.947 Z"/>
 </g>
 <g opacity=".4">
  <linearGradient id="_lgradient_101" x1=".517" x2=".517" y1="0" y2="1">
   <stop offset="0%" style="stop-color:rgb(255,255,255)"/>
   <stop offset="12.5%" stop-opacity=".098" style="stop-color:rgb(255,255,255)"/>
   <stop offset="92.5%" stop-opacity=".098" style="stop-color:rgb(0,0,0)"/>
   <stop offset="100%" stop-opacity=".498" style="stop-color:rgb(0,0,0)"/>
  </linearGradient>
  <path fill="none" stroke="url(#_lgradient_101)" stroke-linecap="round" stroke-linejoin="round" stroke-width="4.077" d="M 165.685 11.947 C 239.74 11.947 250.324 22.504 250.324 96.491 L 250.324 155.742 C 250.324 229.728 239.74 240.285 165.685 240.285 L 90.315 240.285 C 16.26 240.285 5.676 229.728 5.676 155.742 L 5.676 96.491 C 5.676 22.504 16.26 11.947 90.315 11.947 L 165.685 11.947 Z" vector-effect="non-scaling-stroke"/>
 </g>
 <g>
  <path fill="#494949" d="M 247.563 51.003 C 247.076 48.581 246.552 46.239 245.915 44.1 C 245.179 41.631 244.337 39.345 243.376 37.229 C 242.415 35.114 241.335 33.17 240.124 31.382 C 238.912 29.594 237.569 27.963 236.081 26.477 C 234.593 24.991 232.961 23.65 231.171 22.44 C 229.381 21.23 227.433 20.152 225.315 19.192 C 223.197 18.233 220.908 17.392 218.436 16.657 C 215.964 15.922 213.309 15.291 210.458 14.755 C 207.606 14.218 204.559 13.775 201.302 13.411 C 198.045 13.047 194.578 12.764 190.889 12.548 C 183.513 12.114 175.248 11.95 165.991 11.95 L 90.62 11.95 C 81.363 11.95 73.098 12.114 65.722 12.548 C 62.033 12.764 58.566 13.047 55.309 13.411 C 52.052 13.775 49.005 14.218 46.153 14.755 C 43.302 15.291 40.647 15.922 38.175 16.657 C 35.703 17.392 33.414 18.233 31.296 19.192 C 29.178 20.152 27.23 21.23 25.44 22.44 C 23.65 23.65 22.018 24.991 20.53 26.477 C 19.042 27.963 17.699 29.594 16.487 31.382 C 15.276 33.17 14.196 35.114 13.235 37.229 C 12.274 39.345 11.432 41.631 10.696 44.1 C 10.059 46.239 9.535 48.581 9.048 51.003 L 247.563 51.003 Z"/>
  <rect fill="#FFFFFF" width="5" height="5" x="30.31" y="31" transform="matrix(1,0,0,1,0,0)"/>
  <rect fill="#FFFFFF" width="5" height="5" x="30.31" y="41" transform="matrix(1,0,0,1,0,0)"/>
  <rect fill="#FFFFFF" width="5" height="5" x="40.31" y="31" transform="matrix(1,0,0,1,0,0)"/>
  <rect fill="#FFFFFF" width="5" height="5" x="40.31" y="41" transform="matrix(1,0,0,1,0,0)"/>
  <path fill="#FFFFFF" d="M 205.305 31.003 L 220.305 31.003 L 212.805 42.253 L 205.305 31.003 L 205.305 31.003 Z"/>
 </g>
 <g style="opacity:0.7">
  <linearGradient id="_lgradient_102" x1="1.012" x2="-.009" y1="-.009" y2="1.012" gradientTransform="matrix(-156.639,0,0,156.649,188.328,59.675)" gradientUnits="userSpaceOnUse">
   <stop offset="0%" style="stop-color:rgb(240,240,241)"/>
   <stop offset="100%" style="stop-color:rgb(205,217,203)"/>
  </linearGradient>
  <path fill="url(#_lgradient_102)" fill-rule="evenodd" stroke="#4D4D4D" stroke-width="2" d="M 31.689 59.675 L 188.328 216.325 L 31.689 216.323 L 31.689 59.675 Z M 62.905 131.866 L 62.905 185.109 L 116.157 185.109 L 62.905 131.866 Z" vector-effect="non-scaling-stroke"/>
  <path fill="none" stroke="#4D4D4D" stroke-linecap="round" stroke-width="2" d="M 55.101 216.322 L 55.101 208.515 M 78.513 216.322 L 78.513 208.515 M 101.924 216.322 L 101.924 208.608 M 125.336 216.322 L 125.336 208.515 M 148.748 216.322 L 148.748 208.515" vector-effect="non-scaling-stroke"/>
  <path fill="none" stroke="#4D4D4D" stroke-linecap="round" stroke-width="2" d="M 31.672 99.266 L 39.479 99.266 M 31.672 122.678 L 39.479 122.678 M 31.672 146.089 L 39.386 146.089 M 31.672 169.501 L 39.479 169.501 M 31.672 192.913 L 39.479 192.913" vector-effect="non-scaling-stroke"/>
 </g>
</svg>
